assets/images/icons/src/plus-square-o.svg

<?xml version="1.0" encoding="utf-8"?>
<!-- Generated by IcoMoon.io -->
<!DOCTYPE svg PUBLIC "-//W3C//DTD SVG 1.1//EN" "http://www.w3.org/Graphics/SVG/1.1/DTD/svg11.dtd">
<svg version="1.1" xmlns="http://www.w3.org/2000/svg" xmlns:xlink="http://www.w3.org/1999/xlink" width="11" height="14" viewBox="0 0 11 14">
<path fill="#444444" d="M9 6.25v0.5q0 0.109-0.070 0.18t-0.18 0.070h-2.75v2.75q0 0.109-0.070 0.18t-0.18 0.070h-0.5q-0.109 0-0.18-0.070t-0.070-0.18v-2.75h-2.75q-0.109 0-0.18-0.070t-0.070-0.18v-0.5q0-0.109 0.070-0.18t0.18-0.070h2.75v-2.75q0-0.109 0.070-0.18t0.18-0.070h0.5q0.109 0 0.18 0.070t0.070 0.18v2.75h2.75q0.109 0 0.18 0.070t0.070 0.18zM10 9.75v-6.5q0-0.516-0.367-0.883t-0.883-0.367h-6.5q-0.516 0-0.883 0.367t-0.367 0.883v6.5q0 0.516 0.367 0.883t0.883 0.367h6.5q0.516 0 0.883-0.367t0.367-0.883zM11 3.25v6.5q0 0.93-0.66 1.59t-1.59 0.66h-6.5q-0.93 0-1.59-0.66t-0.66-1.59v-6.5q0-0.93 0.66-1.59t1.59-0.66h6.5q0.93 0 1.59 0.66t0.66 1.59z"></path>
</svg>

<svg xmlns="http://www.w3.org/2000/svg" width="11" height="14" viewBox="0 0 11 14"><path fill="#444" d="M9 6.25v.5q0 .109-.07.18T8.75 7H6v2.75q0 .109-.07.18t-.18.07h-.5q-.109 0-.18-.07T5 9.75V7H2.25q-.109 0-.18-.07T2 6.75v-.5q0-.109.07-.18T2.25 6H5V3.25q0-.109.07-.18T5.25 3h.5q.109 0 .18.07t.07.18V6h2.75q.109 0 .18.07t.07.18zm1 3.5v-6.5q0-.516-.367-.883T8.75 2h-6.5q-.516 0-.883.367T1 3.25v6.5q0 .516.367.883T2.25 11h6.5q.516 0 .883-.367T10 9.75zm1-6.5v6.5q0 .93-.66 1.59T8.75 12h-6.5q-.93 0-1.59-.66T0 9.75v-6.5q0-.93.66-1.59T2.25 1h6.5q.93 0 1.59.66T11 3.25z"/></svg>
